images/svg/customer-three.svg

<svg width="104" height="12" viewBox="0 0 104 12" fill="none" xmlns="http://www.w3.org/2000/svg">
<g clip-path="url(#clip0_1_336)">
<path d="M4.76174 11.815L0 0.185547H2.43919L5.92472 8.86138L9.43084 0.185547H11.87L7.08428 11.815H4.76174Z" fill="#131416"/>
<path d="M13.97 4.97793H21.1229C20.9157 4.19242 20.4547 3.49402 19.809 2.98748C19.1785 2.47778 18.3854 2.20234 17.5687 2.20948C16.7308 2.18877 15.9125 2.46091 15.2599 2.97737C14.6205 3.48941 14.1678 4.19149 13.97 4.97793ZM13.253 10.2589C12.6812 9.70794 12.2296 9.04845 11.9258 8.32061C11.6221 7.59277 11.4725 6.81181 11.4862 6.02536C11.473 5.23756 11.6204 4.45512 11.9197 3.72404C12.219 2.99296 12.6641 2.32802 13.229 1.76828C13.7764 1.19619 14.44 0.743218 15.1769 0.438646C15.9138 0.134074 16.7076 -0.0153212 17.507 0.000107623C19.0682 -0.0175493 20.577 0.552508 21.7233 1.59314C22.3182 2.12429 22.7933 2.77171 23.1183 3.49383C23.4432 4.21595 23.6108 4.9968 23.6101 5.78624C23.6121 6.13541 23.5891 6.48428 23.5415 6.83031H13.97C14.0056 7.24036 14.1233 7.63947 14.3164 8.00474C14.5095 8.37001 14.7742 8.69426 15.0952 8.95885C15.7648 9.51512 16.62 9.80897 17.4967 9.78399C18.0275 9.80277 18.5562 9.70865 19.0465 9.5081C19.5368 9.30754 19.9771 9.00529 20.3373 8.62206L23.1092 8.64563C22.5939 9.64653 21.8067 10.4881 20.8347 11.0773C19.8575 11.6857 18.7225 12.0049 17.5653 11.9967C16.7637 12.0119 15.9674 11.8656 15.2257 11.5666C14.4839 11.2677 13.8125 10.8226 13.253 10.2589Z" fill="#131416"/>
<path d="M25.1846 11.8148V5.75248C25.1846 3.89113 25.642 2.49118 26.5568 1.55265C27.0243 1.08178 27.5876 0.713023 28.2101 0.470439C28.8326 0.227855 29.5002 0.116909 30.1693 0.144848H30.406V2.35759H30.1693C28.3991 2.35759 27.5151 3.48922 27.5174 5.75248V11.8148H25.1846Z" fill="#131416"/>
<path d="M37.3423 2.20925C36.8323 2.19346 36.3246 2.2827 35.8519 2.47122C35.3792 2.65975 34.952 2.94337 34.5978 3.30384C33.893 4.03028 33.4999 4.99502 33.4999 5.9982C33.4999 7.00138 33.893 7.96611 34.5978 8.69255C34.9471 9.05168 35.3688 9.33539 35.836 9.52559C36.3032 9.71579 36.8057 9.80831 37.3114 9.79724C37.8119 9.80959 38.3096 9.71887 38.7722 9.53092C39.2349 9.34298 39.6523 9.06199 39.9976 8.70603C40.6901 7.97351 41.0749 7.01106 41.0749 6.01167C41.0749 5.01228 40.6901 4.04983 39.9976 3.31731C39.653 2.96024 39.2358 2.67827 38.773 2.4897C38.3102 2.30113 37.8123 2.21018 37.3114 2.22273L37.3423 2.20925ZM32.9922 1.74447C33.9928 0.759377 35.3103 0.145429 36.7204 0.00726992C38.1304 -0.130889 39.5456 0.215295 40.7247 0.98682C41.9039 1.75834 42.774 2.90745 43.1867 4.23827C43.5995 5.56909 43.5293 6.99924 42.9882 8.28496C42.4471 9.57068 41.4686 10.6324 40.2193 11.2891C38.9701 11.9458 37.5276 12.1569 36.1376 11.8863C34.7476 11.6158 33.4963 10.8804 32.5968 9.80544C31.6973 8.73051 31.2053 7.38259 31.2048 5.99145C31.1921 5.20132 31.3441 4.41699 31.6515 3.68665C31.9589 2.9563 32.4151 2.29538 32.9922 1.74447Z" fill="#131416"/>
<path d="M55.4529 11.815H52.801L49.7443 7.65228L46.6876 11.815H44.0117L48.4167 5.7696L44.3651 0.185547H46.9964L49.7203 3.90713L52.4923 0.185547H55.1236L51.072 5.7696L55.4529 11.815Z" fill="#131416"/>
<path d="M58.146 11.778V7.88802H56.0225V6.54084H58.146V6.12659L58.1941 4.70867C58.3221 3.29638 58.7727 2.18721 59.5457 1.38115C60.3635 0.556968 61.4637 0.0600978 62.6333 -0.0131836V1.40809C61.8582 1.52495 61.1455 1.89378 60.6092 2.45551C60.0513 3.08317 59.7292 3.87958 59.6967 4.71204L59.6487 6.12995V6.54421H63.3846V7.89139H59.6624V11.7813L58.146 11.778Z" fill="#131416"/>
<path d="M67.3054 0.188965H65.7891V11.8184H67.3054V0.188965Z" fill="#131416"/>
<path d="M79.22 2.75486C78.8004 2.32362 78.2939 1.98292 77.7328 1.75445C77.1717 1.52599 76.5682 1.41477 75.9609 1.42789C75.3508 1.41706 74.745 1.52924 74.1809 1.75749C73.6168 1.98573 73.1063 2.32519 72.6812 2.75486C71.8199 3.62542 71.338 4.79128 71.338 6.00493C71.338 7.21857 71.8199 8.38443 72.6812 9.255C73.1026 9.68804 73.6104 10.0312 74.173 10.263C74.7355 10.4947 75.3406 10.6102 75.9506 10.6022C76.5558 10.6135 77.1569 10.5018 77.716 10.274C78.2751 10.0462 78.7802 9.70727 79.1994 9.27857C80.0467 8.39822 80.5188 7.23295 80.5188 6.02177C80.5188 4.81059 80.0467 3.64532 79.1994 2.76496L79.22 2.75486ZM71.6143 1.74447C72.6148 0.759377 73.9324 0.145429 75.3424 0.00726992C76.7525 -0.130889 78.1677 0.215295 79.3468 0.98682C80.5259 1.75834 81.396 2.90745 81.8088 4.23827C82.2215 5.56909 82.1514 6.99924 81.6103 8.28496C81.0692 9.57068 80.0906 10.6324 78.8414 11.2891C77.5922 11.9458 76.1497 12.1569 74.7597 11.8863C73.3697 11.6158 72.1183 10.8804 71.2188 9.80544C70.3193 8.73051 69.8274 7.38259 69.8269 5.99145C69.8142 5.20132 69.9662 4.41699 70.2736 3.68665C70.5809 2.9563 71.0372 2.29538 71.6143 1.74447Z" fill="#131416"/>
<path d="M93.9275 2.75486C93.5079 2.32362 93.0015 1.98292 92.4403 1.75445C91.8792 1.52599 91.2758 1.41477 90.6684 1.42789C90.0584 1.41706 89.4526 1.52924 88.8884 1.75749C88.3243 1.98573 87.8139 2.32519 87.3887 2.75486C86.5274 3.62542 86.0456 4.79128 86.0456 6.00493C86.0456 7.21857 86.5274 8.38443 87.3887 9.255C87.8099 9.68836 88.3177 10.0317 88.8802 10.2635C89.4428 10.4953 90.0481 10.6106 90.6582 10.6022C91.2629 10.6138 91.8636 10.5022 92.4222 10.2744C92.9808 10.0466 93.4852 9.70751 93.9036 9.27857C94.7516 8.39861 95.2242 7.23319 95.2242 6.02177C95.2242 4.81035 94.7516 3.64493 93.9036 2.76496L93.9275 2.75486ZM86.3252 1.74447C87.3258 0.759377 88.6434 0.145429 90.0534 0.00726992C91.4634 -0.130889 92.8786 0.215295 94.0578 0.98682C95.2369 1.75834 96.107 2.90745 96.5198 4.23827C96.9325 5.56909 96.8624 6.99924 96.3213 8.28496C95.7802 9.57068 94.8016 10.6324 93.5524 11.2891C92.3032 11.9458 90.8606 12.1569 89.4707 11.8863C88.0807 11.6158 86.8293 10.8804 85.9298 9.80544C85.0303 8.73051 84.5384 7.38259 84.5379 5.99145C84.525 5.2013 84.6769 4.41691 84.9843 3.68653C85.2916 2.95616 85.748 2.29526 86.3252 1.74447Z" fill="#131416"/>
<path d="M98.5488 11.8147V5.78611C98.5488 3.91128 98.9868 2.50011 99.8628 1.5526C100.313 1.07816 100.862 0.70558 101.474 0.460726C102.085 0.215871 102.744 0.104618 103.403 0.134692C103.518 0.132924 103.633 0.139679 103.746 0.154899V1.57617C103.633 1.55791 103.518 1.55001 103.403 1.5526C102.94 1.53382 102.479 1.62078 102.055 1.80661C101.632 1.99244 101.259 2.2721 100.964 2.6236C100.365 3.33536 100.065 4.38953 100.065 5.78611V11.8147H98.5488Z" fill="#131416"/>
<path d="M102.45 10.5214H102.707C102.794 10.5303 102.882 10.5114 102.957 10.4675C102.979 10.4508 102.996 10.4292 103.007 10.4046C103.019 10.38 103.024 10.353 103.022 10.3261C103.023 10.2901 103.012 10.2549 102.992 10.225C102.969 10.1947 102.938 10.1714 102.902 10.1577C102.833 10.1407 102.761 10.1339 102.69 10.1374H102.45V10.5214ZM102.237 11.2455V9.96231H102.69C102.805 9.95617 102.921 9.96753 103.033 9.99599C103.099 10.0198 103.157 10.0633 103.197 10.1206C103.237 10.176 103.258 10.2417 103.259 10.3092C103.26 10.3549 103.251 10.4003 103.233 10.4425C103.216 10.4848 103.19 10.5231 103.156 10.5551C103.083 10.6256 102.985 10.6664 102.882 10.6696C102.924 10.6856 102.962 10.7096 102.995 10.7403C103.068 10.8177 103.132 10.9024 103.187 10.9929L103.348 11.2455H103.091L102.974 11.0434C102.92 10.9306 102.844 10.8288 102.751 10.7437C102.702 10.7104 102.643 10.6949 102.583 10.6999H102.45V11.2455H102.237ZM102.772 9.58847C102.598 9.59015 102.426 9.63534 102.275 9.71981C102.114 9.80302 101.981 9.93064 101.894 10.0869C101.804 10.2382 101.757 10.4102 101.757 10.5854C101.757 10.759 101.803 10.9295 101.89 11.0805C101.978 11.2358 102.109 11.3632 102.268 11.4476C102.421 11.5358 102.595 11.5823 102.772 11.5823C102.949 11.5823 103.123 11.5358 103.276 11.4476C103.435 11.3632 103.566 11.2358 103.654 11.0805C103.738 10.9286 103.783 10.7585 103.784 10.5854C103.784 10.4107 103.738 10.2389 103.65 10.0869C103.562 9.93135 103.43 9.80396 103.269 9.71981C103.124 9.63858 102.96 9.59349 102.793 9.58847H102.772ZM102.772 9.39312C102.981 9.39386 103.186 9.44598 103.369 9.54468C103.561 9.64634 103.719 9.79935 103.825 9.98588C103.93 10.1692 103.985 10.3754 103.986 10.5854C103.987 10.7935 103.931 10.9981 103.825 11.1781C103.723 11.366 103.566 11.5205 103.376 11.6227C103.191 11.7242 102.983 11.7775 102.772 11.7775C102.561 11.7775 102.353 11.7242 102.168 11.6227C101.982 11.5167 101.83 11.3615 101.729 11.1748C101.623 10.9935 101.566 10.7879 101.566 10.5786C101.566 10.3694 101.623 10.1638 101.729 9.98251C101.836 9.79597 101.994 9.64297 102.185 9.54131C102.372 9.44213 102.581 9.39113 102.793 9.39312H102.772Z" fill="#131416"/>
</g>
<defs>
<clipPath id="clip0_1_336">
<rect width="104" height="12" fill="white"/>
</clipPath>
</defs>
</svg>

<svg width="104" height="12" fill="none" xmlns="http://www.w3.org/2000/svg"><g clip-path="url(#a)" fill="#131416"><path d="M4.762 11.815 0 .185h2.44l3.485 8.676L9.43.186h2.439L7.084 11.815H4.762ZM13.97 4.978h7.153a3.746 3.746 0 0 0-1.314-1.99 3.516 3.516 0 0 0-2.24-.779 3.58 3.58 0 0 0-2.31.768 3.73 3.73 0 0 0-1.289 2Zm-.717 5.28a5.79 5.79 0 0 1-1.327-1.937 5.7 5.7 0 0 1-.44-2.296 5.815 5.815 0 0 1 .434-2.301c.299-.731.744-1.396 1.309-1.956a5.718 5.718 0 0 1 1.948-1.33A5.809 5.809 0 0 1 17.507 0a6.17 6.17 0 0 1 4.216 1.593 5.667 5.667 0 0 1 1.395 1.9c.325.723.493 1.504.492 2.293.002.35-.02.698-.069 1.044H13.97c.036.41.153.81.346 1.175.193.365.458.69.78.954a3.6 3.6 0 0 0 2.4.825c.532.019 1.06-.075 1.55-.276.49-.2.931-.503 1.291-.886l2.772.024a6.126 6.126 0 0 1-2.274 2.431 6.106 6.106 0 0 1-3.27.92 5.957 5.957 0 0 1-2.34-.43 5.87 5.87 0 0 1-1.972-1.308ZM25.185 11.815V5.752c0-1.86.457-3.26 1.372-4.2A4.77 4.77 0 0 1 28.21.47a4.841 4.841 0 0 1 1.96-.325h.236v2.213h-.237c-1.77 0-2.654 1.131-2.652 3.394v6.063h-2.332ZM37.342 2.21a3.714 3.714 0 0 0-1.49.261c-.473.189-.9.472-1.254.833A3.869 3.869 0 0 0 33.5 5.998c0 1.003.393 1.968 1.098 2.695.35.359.77.642 1.238.833a3.7 3.7 0 0 0 1.475.271c.5.013.999-.078 1.461-.266.463-.188.88-.469 1.226-.825a3.921 3.921 0 0 0 1.077-2.694c0-1-.385-1.962-1.077-2.695a3.577 3.577 0 0 0-1.225-.827 3.633 3.633 0 0 0-1.462-.267l.031-.014Zm-4.35-.466a6.212 6.212 0 0 1 7.733-.758 6.022 6.022 0 0 1 2.462 3.252 5.909 5.909 0 0 1-.199 4.047 6.052 6.052 0 0 1-2.769 3.004 6.224 6.224 0 0 1-4.081.597 6.145 6.145 0 0 1-3.541-2.08 5.945 5.945 0 0 1-1.392-3.815c-.013-.79.14-1.574.447-2.304a5.793 5.793 0 0 1 1.34-1.943ZM55.453 11.815H52.8l-3.057-4.163-3.056 4.163h-2.676l4.405-6.045L44.365.186h2.631l2.724 3.721L52.492.186h2.632L51.072 5.77l4.38 6.045ZM58.146 11.778v-3.89h-2.123V6.541h2.123v-.414l.048-1.418c.128-1.413.579-2.522 1.352-3.328a4.77 4.77 0 0 1 3.087-1.394v1.421a3.524 3.524 0 0 0-2.024 1.048 3.608 3.608 0 0 0-.912 2.256l-.048 1.418v.414h3.736v1.347h-3.723v3.89l-1.516-.003ZM67.305.189H65.79v11.63h1.516V.188ZM79.22 2.755a4.378 4.378 0 0 0-1.487-1 4.446 4.446 0 0 0-1.772-.327 4.532 4.532 0 0 0-1.78.33 4.465 4.465 0 0 0-1.5.997 4.62 4.62 0 0 0-1.343 3.25 4.62 4.62 0 0 0 1.343 3.25c.422.433.93.776 1.492 1.008a4.513 4.513 0 0 0 1.778.34 4.46 4.46 0 0 0 1.765-.329 4.392 4.392 0 0 0 1.483-.995 4.696 4.696 0 0 0 1.32-3.257 4.696 4.696 0 0 0-1.32-3.257l.021-.01Zm-7.606-1.01a6.212 6.212 0 0 1 7.733-.758 6.023 6.023 0 0 1 2.462 3.251 5.91 5.91 0 0 1-.199 4.047 6.053 6.053 0 0 1-2.769 3.004 6.224 6.224 0 0 1-4.081.597 6.145 6.145 0 0 1-3.541-2.08 5.945 5.945 0 0 1-1.392-3.815c-.013-.79.14-1.574.447-2.304a5.791 5.791 0 0 1 1.34-1.943ZM93.927 2.755a4.377 4.377 0 0 0-1.487-1 4.445 4.445 0 0 0-1.772-.327 4.533 4.533 0 0 0-1.78.33 4.466 4.466 0 0 0-1.5.997 4.62 4.62 0 0 0-1.342 3.25 4.62 4.62 0 0 0 1.343 3.25c.42.433.929.777 1.491 1.008a4.506 4.506 0 0 0 1.778.34c.605.01 1.206-.1 1.764-.329a4.378 4.378 0 0 0 1.482-.995 4.693 4.693 0 0 0 1.32-3.257 4.693 4.693 0 0 0-1.32-3.257l.023-.01Zm-7.602-1.01a6.212 6.212 0 0 1 7.733-.758 6.023 6.023 0 0 1 2.462 3.251 5.91 5.91 0 0 1-.199 4.047 6.053 6.053 0 0 1-2.769 3.004 6.224 6.224 0 0 1-4.081.597 6.145 6.145 0 0 1-3.541-2.08 5.945 5.945 0 0 1-1.392-3.815 5.7 5.7 0 0 1 .446-2.304 5.788 5.788 0 0 1 1.341-1.943ZM98.549 11.815V5.786c0-1.875.438-3.286 1.314-4.233.45-.475.999-.847 1.611-1.092a4.624 4.624 0 0 1 1.929-.326c.115-.002.23.005.343.02v1.421a1.886 1.886 0 0 0-.343-.023 3.05 3.05 0 0 0-1.348.254 2.997 2.997 0 0 0-1.091.817c-.599.711-.899 1.766-.899 3.162v6.029h-1.516ZM102.45 10.521h.257a.413.413 0 0 0 .25-.054.162.162 0 0 0 .05-.062.153.153 0 0 0 .015-.079.174.174 0 0 0-.03-.101.204.204 0 0 0-.09-.067.738.738 0 0 0-.212-.02h-.24v.383Zm-.213.724V9.963h.453c.115-.006.231.006.343.034a.342.342 0 0 1 .226.313.322.322 0 0 1-.026.134.316.316 0 0 1-.077.112.413.413 0 0 1-.274.115c.042.016.08.04.113.07.073.078.137.162.192.253l.161.252h-.257l-.117-.202a.982.982 0 0 0-.223-.3.26.26 0 0 0-.168-.043h-.133v.546h-.213Zm.535-1.657a1.041 1.041 0 0 0-.497.132.917.917 0 0 0-.381.367.974.974 0 0 0-.004.994.941.941 0 0 0 .378.367 1.01 1.01 0 0 0 1.008 0 .941.941 0 0 0 .378-.367.994.994 0 0 0-.004-.994.933.933 0 0 0-.381-.367 1.04 1.04 0 0 0-.476-.132h-.021Zm0-.195c.209 0 .414.053.597.152.192.101.35.254.456.44.105.184.16.39.161.6.001.208-.055.413-.161.593a1.107 1.107 0 0 1-.449.445 1.256 1.256 0 0 1-1.208 0 1.14 1.14 0 0 1-.439-.448 1.182 1.182 0 0 1-.163-.596 1.182 1.182 0 0 1 .619-1.038c.187-.099.396-.15.608-.148h-.021Z"/></g><defs><clipPath id="a"><path fill="#fff" d="M0 0h104v12H0z"/></clipPath></defs></svg>
